src/lib/packages/icons/src/assets/line/heart-slash.svg

<svg width="24" height="24" viewBox="0 0 24 24" fill="none" xmlns="http://www.w3.org/2000/svg">
<path d="M21.339 7.12801C21.797 8.46901 21.874 10.02 21.565 11.614C20.336 17.97 12.6371 21.535 12.3101 21.684C12.2111 21.729 12.105 21.751 11.999 21.751C11.893 21.751 11.786 21.728 11.687 21.683C11.626 21.655 10.184 20.9901 8.428 19.7541C8.089 19.5161 8.008 19.048 8.246 18.709C8.482 18.371 8.95104 18.288 9.29104 18.527C10.464 19.353 11.501 19.912 11.999 20.165C13.405 19.449 19.1401 16.252 20.0921 11.328C20.3531 9.99003 20.292 8.706 19.919 7.613C19.785 7.221 19.994 6.79503 20.387 6.66103C20.777 6.52503 21.205 6.73601 21.339 7.12801ZM21.5301 3.53005L3.53005 21.5301C3.38405 21.6761 3.19202 21.75 3.00002 21.75C2.80802 21.75 2.61599 21.6771 2.46999 21.5301C2.17699 21.2371 2.17699 20.762 2.46999 20.469L5.61208 17.3271C3.89608 15.543 2.82401 13.624 2.43301 11.612C1.95601 9.14802 2.43504 6.74705 3.71304 5.18905C4.74804 3.92905 6.23504 3.25805 8.01504 3.24905C8.02104 3.24905 8.02808 3.24905 8.03408 3.24905C10.0721 3.24905 11.312 4.40803 12 5.39303C12.687 4.40803 13.928 3.24905 15.964 3.24905C15.97 3.24905 15.9761 3.24905 15.9831 3.24905C17.0961 3.25805 18.072 3.52902 18.911 4.02902L20.471 2.46902C20.764 2.17602 21.239 2.17602 21.532 2.46902C21.823 2.76202 21.8231 3.23805 21.5301 3.53005ZM6.67104 16.268L17.801 5.13802C17.266 4.89302 16.659 4.75502 15.973 4.75002C15.969 4.75002 15.9651 4.75002 15.9611 4.75002C13.5871 4.75002 12.744 7.129 12.71 7.23C12.606 7.533 12.32 7.73904 12 7.73904C11.998 7.73904 11.997 7.73904 11.996 7.73904C11.675 7.73804 11.39 7.53305 11.287 7.22805C11.254 7.13005 10.411 4.751 8.03298 4.751C8.02898 4.751 8.02502 4.751 8.02102 4.751C6.68402 4.758 5.62497 5.22603 4.87197 6.14303C3.87397 7.36003 3.51305 9.298 3.90505 11.329C4.23905 13.042 5.17104 14.701 6.67104 16.268Z" fill="currentColor"/>
</svg>

<svg xmlns="http://www.w3.org/2000/svg" width="24" height="24" fill="none"><path fill="currentColor" d="M21.339 7.128c.458 1.341.535 2.892.226 4.486-1.229 6.356-8.928 9.921-9.255 10.07a.751.751 0 0 1-.623-.001c-.061-.028-1.503-.693-3.259-1.929a.75.75 0 0 1 .863-1.227 22.7 22.7 0 0 0 2.708 1.638c1.406-.716 7.141-3.913 8.093-8.837.261-1.338.2-2.622-.173-3.715a.75.75 0 1 1 1.42-.485Zm.191-3.598-18 18a.748.748 0 0 1-1.06 0 .75.75 0 0 1 0-1.061l3.142-3.142c-1.716-1.784-2.788-3.703-3.179-5.715-.477-2.464.002-4.865 1.28-6.423 1.035-1.26 2.522-1.931 4.302-1.94h.02c2.037 0 3.277 1.159 3.965 2.144.687-.985 1.928-2.144 3.964-2.144h.02c1.112.009 2.088.28 2.927.78l1.56-1.56a.75.75 0 1 1 1.06 1.061ZM6.671 16.268l11.13-11.13a4.417 4.417 0 0 0-1.828-.388h-.012c-2.374 0-3.217 2.379-3.251 2.48a.753.753 0 0 1-.71.509h-.004a.75.75 0 0 1-.709-.511c-.033-.098-.876-2.477-3.254-2.477h-.012c-1.337.007-2.396.475-3.149 1.392-.998 1.217-1.359 3.155-.967 5.186.334 1.713 1.266 3.372 2.766 4.939Z"/></svg>
